book-shop/images/phone.svg

<svg xmlns="http://www.w3.org/2000/svg" height="48" width="48"><path d="M39.75 42q-6.1 0-12.125-3T16.8 31.2Q12 26.4 9 20.375 6 14.35 6 8.25q0-.95.65-1.6Q7.3 6 8.25 6h7q.7 0 1.225.475.525.475.675 1.275l1.35 6.3q.1.7-.025 1.275t-.525.975l-5 5.05q2.8 4.65 6.275 8.1Q22.7 32.9 27.1 35.3l4.75-4.9q.5-.55 1.15-.775.65-.225 1.3-.075l5.95 1.3q.75.15 1.25.75T42 33v6.75q0 .95-.65 1.6-.65.65-1.6.65zm-28.3-23.4l4.05-4.1L14.35 9H9q0 1.95.6 4.275t1.85 5.325zM39 39v-5.35l-5.15-1.05-3.95 4.15q2.05.95 4.45 1.55 2.4.6 4.65.7zm-9.1-2.25zM11.45 18.6z"/></svg>

<svg xmlns="http://www.w3.org/2000/svg" height="48" width="48"><path d="M39.75 42Q33.65 42 27.625 39Q21.6 36 16.8 31.2Q12 26.4 9 20.375Q6 14.35 6 8.25Q6 7.3 6.65 6.65Q7.3 6 8.25 6H15.25Q15.95 6 16.475 6.475Q17 6.95 17.15 7.75L18.5 14.05Q18.6 14.75 18.475 15.325Q18.35 15.9 17.95 16.3L12.95 21.35Q15.75 26 19.225 29.45Q22.7 32.9 27.1 35.3L31.85 30.4Q32.35 29.85 33 29.625Q33.65 29.4 34.3 29.55L40.25 30.85Q41 31 41.5 31.6Q42 32.2 42 33V39.75Q42 40.7 41.35 41.35Q40.7 42 39.75 42ZM11.45 18.6 15.5 14.5Q15.5 14.5 15.5 14.5Q15.5 14.5 15.5 14.5L14.35 9Q14.35 9 14.35 9Q14.35 9 14.35 9H9Q9 9 9 9Q9 9 9 9Q9 10.95 9.6 13.275Q10.2 15.6 11.45 18.6ZM39 39Q39 39 39 39Q39 39 39 39V33.65Q39 33.65 39 33.65Q39 33.65 39 33.65L33.85 32.6Q33.85 32.6 33.85 32.6Q33.85 32.6 33.85 32.6L29.9 36.75Q31.95 37.7 34.35 38.3Q36.75 38.9 39 39ZM29.9 36.75Q29.9 36.75 29.9 36.75Q29.9 36.75 29.9 36.75Q29.9 36.75 29.9 36.75Q29.9 36.75 29.9 36.75Q29.9 36.75 29.9 36.75Q29.9 36.75 29.9 36.75Q29.9 36.75 29.9 36.75Q29.9 36.75 29.9 36.75ZM11.45 18.6Q11.45 18.6 11.45 18.6Q11.45 18.6 11.45 18.6Q11.45 18.6 11.45 18.6Q11.45 18.6 11.45 18.6Q11.45 18.6 11.45 18.6Q11.45 18.6 11.45 18.6Q11.45 18.6 11.45 18.6Q11.45 18.6 11.45 18.6Z"/></svg>
